src/images/svg/check-mark.svg

<svg  viewBox="0 0 25 20" fill="none" xmlns="http://www.w3.org/2000/svg">
<path d="M21.5357 0.946068C20.608 1.36111 19.7189 1.86789 18.8702 2.4331C17.1633 3.55612 15.6029 4.89335 14.1392 6.31946C12.6761 7.74907 11.314 9.27892 10.0261 10.8697C9.704 11.2674 8.26183 13.0386 8.26183 13.0386L2.26415 4.05099L0 10.327L8.11076 20C8.89836 18.4055 9.65634 16.8314 10.3998 15.4638C10.5845 15.116 10.778 14.7887 10.9629 14.4563C10.9629 14.4563 11.9147 12.7831 12.1651 12.3616C13.166 10.6758 14.2479 9.0337 15.4393 7.47374C16.6321 5.91664 17.9287 4.43011 19.3986 3.12332C20.13 2.46562 20.9085 1.8575 21.7427 1.32829C22.5751 0.798046 23.4596 0.333722 24.4057 0C23.4215 0.193628 22.4612 0.529888 21.5357 0.946068Z" fill="#FF6B09"/>
</svg>

<svg xmlns="http://www.w3.org/2000/svg" fill="none" viewBox="0 0 25 20"><path fill="#FF6B09" d="M21.536.946c-.928.415-1.817.922-2.666 1.487-1.707 1.123-3.267 2.46-4.73 3.886a52.726 52.726 0 0 0-4.114 4.55c-.322.398-1.764 2.17-1.764 2.17L2.264 4.05 0 10.327 8.11 20c.788-1.595 1.546-3.169 2.29-4.536.184-.348.378-.675.563-1.008 0 0 .952-1.673 1.202-2.094 1.001-1.686 2.083-3.328 3.274-4.888 1.193-1.557 2.49-3.044 3.96-4.35a17.693 17.693 0 0 1 2.344-1.796C22.575.798 23.46.334 24.406 0c-.984.194-1.945.53-2.87.946z"/></svg>
